X: 1
T: Marguerite
R: waltz
O: France
Z: 2009 John Chambers <jc:trillian.mit.edu>
M: 3/4
L: 1/8
K: Gm
|:"Gm"G2 B2 d2 | g2 gf ga | g2 d2 B2 \
| "F7"f4 f2 | f2 e2 d2 | "Cm"e4 c2 | c2 d2 e2 |1"Gm"e2 d2 B2 :|2 "Gm"d4 G2 |]
| "Gm"B2 BA G2 | "F"A4 A2 | c3 B A2 | "Gm"B4 AB \
| "Gm"G2 A2 B2  | "Cm"e4 d2 | "D7"d2 A2 c2 | "Gm"c2 B2 A2 ||
| "Gm"B2 AB AG | "F"A4 A2 | c3 B A2 | "Gm"B4 AB \
| "Gm"G2 A2 B2  | "Eb"e4 "Gm"d2 | B4 "D7"A2 | "Gm"G6 |]
